X:198
T:New Spa. THO5.198, The
M:2/4
L:1/8
B:Thompson's Complete Collection of 200 Favourite Dances Vol.5
F:https://www.libraryofdance.org/manuals/1780c-Thompson-Compleat-5.pdf
Z:vmp. Peter Dunk 2024
Q:1/4=110
K:Bb
df/d/ Bd|ce/c/ AF|GBAc|B/A/B/c/ Bc|
df/d/ Bd|ce/c/ AF|GBAc|B2B,2:|
|:c2 B/A/G/F/|f2 e/d/c/B/|A/B/c/d/ e/d/c/B/|AcAF|
c2 B/A/G/F/|f2 e/d/c/B/|A/B/c/d/ e/c/B/A/|B2B,2:|
W:
W:Turn your partner with the right hand then with the left ./.
W:lead down the middle, up again ./:
W:set 3 & 3 top and bottom, set 3 & 3 sideways :/.
W:Hands 6 round :/:

